icons/mr.svg

<?xml version="1.0" ?>
<svg xmlns="http://www.w3.org/2000/svg" xmlns:ev="http://www.w3.org/2001/xml-events" xmlns:xlink="http://www.w3.org/1999/xlink" baseProfile="full" height="600px" version="1.1" viewBox="-805.7160963271783 -1031.0079865390983 11847.253416647012 12296.901411278179" width="579px">
	<defs/>
	<path d="M 7460.0,10233.0 C 7460.0,10219.0 7298.0,9175.0 7295.0,9172.0 C 7293.0,9170.0 6750.0,9218.0 6087.0,9279.0 C 5424.0,9340.0 4869.0,9390.0 4853.0,9390.0 L 4825.0,9390.0 L 4757.0,8993.0 C 4720.0,8774.0 4642.0,8292.0 4584.0,7921.0 C 4527.0,7550.0 4479.0,7246.0 4477.0,7245.0 C 4476.0,7244.0 4414.0,7222.0 4340.0,7197.0 C 4213.0,7153.0 4201.0,7151.0 4134.0,7156.0 L 4063.0,7163.0 L 3866.0,7049.0 C 3684.0,6945.0 3664.0,6931.0 3609.0,6866.0 L 3549.0,6795.0 L 3555.0,6641.0 C 3560.0,6506.0 3556.0,6429.0 3519.0,6041.0 C 3497.0,5796.0 3476.0,5593.0 3475.0,5592.0 C 3473.0,5590.0 2973.0,5627.0 2363.0,5674.0 C 1754.0,5721.0 1180.0,5764.0 1088.0,5770.0 C 934.0,5779.0 913.0,5783.0 806.0,5820.0 C 701.0,5856.0 681.0,5860.0 591.0,5860.0 L 492.0,5860.0 L 450.0,5788.0 C 427.0,5748.0 390.0,5673.0 369.0,5621.0 C 335.0,5539.0 330.0,5518.0 330.0,5448.0 C 330.0,5370.0 330.0,5369.0 353.0,5376.0 C 383.0,5385.0 379.0,5379.0 405.0,5467.0 C 417.0,5511.0 442.0,5572.0 460.0,5604.0 C 499.0,5673.0 504.0,5669.0 526.0,5545.0 C 549.0,5412.0 575.0,5342.0 632.0,5255.0 L 685.0,5175.0 L 688.0,5234.0 C 691.0,5288.0 692.0,5292.0 713.0,5286.0 C 725.0,5283.0 738.0,5280.0 742.0,5280.0 C 757.0,5280.0 790.0,5200.0 790.0,5163.0 C 790.0,5088.0 816.0,5014.0 863.0,4947.0 C 915.0,4874.0 922.0,4834.0 891.0,4794.0 C 880.0,4781.0 869.0,4746.0 865.0,4717.0 C 859.0,4673.0 851.0,4659.0 814.0,4625.0 C 783.0,4596.0 770.0,4576.0 770.0,4557.0 C 770.0,4537.0 775.0,4530.0 790.0,4530.0 C 813.0,4530.0 813.0,4528.0 799.0,4475.0 C 791.0,4446.0 766.0,4412.0 703.0,4349.0 C 639.0,4284.0 619.0,4257.0 622.0,4240.0 L 625.0,4218.0 L 652.0,4239.0 C 670.0,4253.0 681.0,4257.0 685.0,4249.0 C 689.0,4243.0 701.0,4240.0 711.0,4243.0 C 728.0,4248.0 728.0,4246.0 714.0,4225.0 C 693.0,4193.0 648.0,4177.0 596.0,4182.0 L 553.0,4187.0 L 561.0,4141.0 C 576.0,4061.0 578.0,4055.0 636.0,3975.0 C 668.0,3931.0 699.0,3873.0 707.0,3845.0 C 725.0,3785.0 732.0,3566.0 732.0,3165.0 C 731.0,2883.0 731.0,2871.0 702.0,2739.0 C 673.0,2605.0 671.0,2600.0 575.0,2431.0 C 519.0,2332.0 460.0,2213.0 435.0,2148.0 C 412.0,2086.0 363.0,1974.0 326.0,1900.0 C 271.0,1792.0 250.0,1737.0 220.0,1618.0 C 199.0,1537.0 184.0,1470.0 186.0,1470.0 C 189.0,1470.0 203.0,1476.0 218.0,1484.0 C 256.0,1504.0 289.0,1543.0 343.0,1630.0 C 384.0,1698.0 394.0,1707.0 439.0,1724.0 C 507.0,1748.0 566.0,1738.0 626.0,1692.0 C 672.0,1657.0 673.0,1657.0 751.0,1663.0 C 799.0,1667.0 852.0,1679.0 891.0,1695.0 C 961.0,1723.0 1006.0,1725.0 1188.0,1710.0 C 1292.0,1702.0 1304.0,1703.0 1333.0,1720.0 C 1379.0,1748.0 1558.0,1748.0 1650.0,1720.0 C 1694.0,1707.0 1744.0,1700.0 1805.0,1700.0 C 1946.0,1700.0 1964.0,1695.0 1991.0,1646.0 C 2003.0,1624.0 2039.0,1578.0 2071.0,1545.0 C 2139.0,1472.0 2150.0,1453.0 2150.0,1402.0 C 2150.0,1359.0 2162.0,1350.0 2227.0,1350.0 C 2256.0,1350.0 2263.0,1344.0 2284.0,1301.0 L 2309.0,1253.0 L 2407.0,1231.0 C 2461.0,1218.0 2512.0,1207.0 2520.0,1204.0 C 2528.0,1202.0 2554.0,1183.0 2577.0,1163.0 C 2612.0,1131.0 2636.0,1089.0 2721.0,905.0 C 2777.0,784.0 2827.0,680.0 2832.0,673.0 C 2837.0,667.0 2853.0,659.0 2868.0,655.0 C 2883.0,652.0 2914.0,630.0 2938.0,607.0 C 2978.0,568.0 2980.0,563.0 2980.0,508.0 C 2980.0,426.0 3015.0,358.0 3076.0,322.0 C 3185.0,257.0 3275.0,178.0 3323.0,105.0 L 3371.0,32.0 L 3485.0,15.0 L 3599.0,-2.0 L 3682.0,45.0 C 3728.0,71.0 3766.0,93.0 3767.0,94.0 C 3767.0,94.0 3763.0,130.0 3756.0,172.0 L 3744.0,250.0 L 3830.0,412.0 C 3916.0,573.0 3917.0,575.0 3971.0,603.0 C 4000.0,618.0 4041.0,647.0 4062.0,667.0 L 4098.0,702.0 L 4139.0,674.0 C 4179.0,646.0 4180.0,644.0 4180.0,585.0 L 4180.0,525.0 L 4342.0,381.0 L 4505.0,237.0 L 4591.0,329.0 L 4678.0,420.0 L 4728.0,420.0 C 4780.0,420.0 4790.0,429.0 4790.0,471.0 C 4790.0,488.0 4798.0,490.0 4866.0,490.0 C 4907.0,490.0 4972.0,495.0 5009.0,501.0 L 5078.0,511.0 L 5218.0,454.0 L 5358.0,397.0 L 5516.0,406.0 L 5675.0,415.0 L 5678.0,482.0 L 5681.0,549.0 L 5732.0,580.0 C 5759.0,597.0 5783.0,610.0 5785.0,608.0 C 5786.0,606.0 5778.0,575.0 5767.0,537.0 C 5756.0,500.0 5749.0,468.0 5751.0,466.0 C 5755.0,462.0 8686.0,239.0 8725.0,240.0 C 8743.0,240.0 8755.0,278.0 8838.0,583.0 C 8888.0,771.0 8930.0,931.0 8930.0,937.0 C 8930.0,943.0 8892.0,979.0 8846.0,1015.0 L 8762.0,1082.0 L 8756.0,1143.0 C 8750.0,1213.0 8726.0,8189.0 8731.0,8194.0 C 8733.0,8196.0 9003.0,8180.0 9330.0,8159.0 C 9657.0,8139.0 9953.0,8120.0 9988.0,8118.0 C 10022.0,8116.0 10050.0,8117.0 10050.0,8120.0 C 10049.0,8123.0 9994.0,8168.0 9927.0,8220.0 C 9860.0,8272.0 9607.0,8480.0 9365.0,8681.0 C 8898.0,9068.0 7494.0,10221.0 7473.0,10234.0 C 7466.0,10238.0 7460.0,10238.0 7460.0,10233.0" fill="pink"/>
</svg>

<?xml version="1.0" standalone="no"?>
<!DOCTYPE svg PUBLIC "-//W3C//DTD SVG 20010904//EN"
 "http://www.w3.org/TR/2001/REC-SVG-20010904/DTD/svg10.dtd">
<svg version="1.0" xmlns="http://www.w3.org/2000/svg"
 width="1024.000000pt" height="1024.000000pt" viewBox="0 0 1024.000000 1024.000000"
 preserveAspectRatio="xMidYMid meet">
<metadata>
Created by potrace 1.10, written by Peter Selinger 2001-2011
</metadata>
<g transform="translate(0.000000,1024.000000) scale(0.100000,-0.100000)"
fill="#000000" stroke="none">
<path d="M7460 10233 c0 -14 -162 -1058 -165 -1061 -2 -2 -545 46 -1208 107
-663 61 -1218 111 -1234 111 l-28 0 -68 -397 c-37 -219 -115 -701 -173 -1072
-57 -371 -105 -675 -107 -676 -1 -1 -63 -23 -137 -48 -127 -44 -139 -46 -206
-41 l-71 7 -197 -114 c-182 -104 -202 -118 -257 -183 l-60 -71 6 -154 c5 -135
1 -212 -36 -600 -22 -245 -43 -448 -44 -449 -2 -2 -502 35 -1112 82 -609 47
-1183 90 -1275 96 -154 9 -175 13 -282 50 -105 36 -125 40 -215 40 l-99 0 -42
-72 c-23 -40 -60 -115 -81 -167 -34 -82 -39 -103 -39 -173 0 -78 0 -79 23 -72
30 9 26 3 52 91 12 44 37 105 55 137 39 69 44 65 66 -59 23 -133 49 -203 106
-290 l53 -80 3 59 c3 54 4 58 25 52 12 -3 25 -6 29 -6 15 0 48 -80 48 -117 0
-75 26 -149 73 -216 52 -73 59 -113 28 -153 -11 -13 -22 -48 -26 -77 -6 -44
-14 -58 -51 -92 -31 -29 -44 -49 -44 -68 0 -20 5 -27 20 -27 23 0 23 -2 9 -55
-8 -29 -33 -63 -96 -126 -64 -65 -84 -92 -81 -109 l3 -22 27 21 c18 14 29 18
33 10 4 -6 16 -9 26 -6 17 5 17 3 3 -18 -21 -32 -66 -48 -118 -43 l-43 5 8
-46 c15 -80 17 -86 75 -166 32 -44 63 -102 71 -130 18 -60 25 -279 25 -680 -1
-282 -1 -294 -30 -426 -29 -134 -31 -139 -127 -308 -56 -99 -115 -218 -140
-283 -23 -62 -72 -174 -109 -248 -55 -108 -76 -163 -106 -282 -21 -81 -36
-148 -34 -148 3 0 17 6 32 14 38 20 71 59 125 146 41 68 51 77 96 94 68 24
127 14 187 -32 46 -35 47 -35 125 -29 48 4 101 16 140 32 70 28 115 30 297 15
104 -8 116 -7 145 10 46 28 225 28 317 0 44 -13 94 -20 155 -20 141 0 159 -5
186 -54 12 -22 48 -68 80 -101 68 -73 79 -92 79 -143 0 -43 12 -52 77 -52 29
0 36 -6 57 -49 l25 -48 98 -22 c54 -13 105 -24 113 -27 8 -2 34 -21 57 -41 35
-32 59 -74 144 -258 56 -121 106 -225 111 -232 5 -6 21 -14 36 -18 15 -3 46
-25 70 -48 40 -39 42 -44 42 -99 0 -82 35 -150 96 -186 109 -65 199 -144 247
-217 l48 -73 114 -17 114 -17 83 47 c46 26 84 48 85 49 0 0 -4 36 -11 78 l-12
78 86 162 c86 161 87 163 141 191 29 15 70 44 91 64 l36 35 41 -28 c40 -28 41
-30 41 -89 l0 -60 162 -144 163 -144 86 92 87 91 50 0 c52 0 62 9 62 51 0 17
8 19 76 19 41 0 106 5 143 11 l69 10 140 -57 140 -57 158 9 159 9 3 67 3 67
51 31 c27 17 51 30 53 28 1 -2 -7 -33 -18 -71 -11 -37 -18 -69 -16 -71 4 -4
2935 -227 2974 -226 18 0 30 38 113 343 50 188 92 348 92 354 0 6 -38 42 -84
78 l-84 67 -6 61 c-6 70 -30 7046 -25 7051 2 2 272 -14 599 -35 327 -20 623
-39 658 -41 34 -2 62 -1 62 2 -1 3 -56 48 -123 100 -67 52 -320 260 -562 461
-467 387 -1871 1540 -1892 1553 -7 4 -13 4 -13 -1z"/>
</g>
</svg>
